dist/svg/file-arrow-o.svg

<!-- Generated by Trend Micro Style Portal -->
<svg version="1.1" xmlns="http://www.w3.org/2000/svg" width="16" height="16" viewBox="0 0 16 16">
  <title>file-arrow-o</title>
  <path fill="rgb(34,34,34)" d="M2 1h8v4h4v3h1v-4l-4-4h-9c-0.5 0-1 0.5-1 1v14c0 0.5 0.5 1 1 1h9v-1h-9v-14zM11 1.4l2.6 2.6h-2.6v-2.6zM12 16v-3h-4v-2h4v-3l4 4-4 4z"></path>
</svg>

<svg width="16" height="16" viewBox="0 0 16 16" fill="rgb(34, 34, 34)" xmlns="http://www.w3.org/2000/svg"><title>file-arrow-o</title><path d="M2 1H10V5H14V8H15V4L11 0H2C1.5 0 1 0.5 1 1V15C1 15.5 1.5 16 2 16H11V15H2V1ZM11 1.4L13.6 4H11V1.4ZM12 16V13H8V11H12V8L16 12L12 16Z" fill="rgb(34, 34, 34)" fill-opacity="1.00"/></svg>
